packages/tokens/icons/compassStrikethrough/size16Px.svg

<svg viewBox="0 0 16 16" fill="none" xmlns="http://www.w3.org/2000/svg" width="1em" height="1em"><circle cx="8" cy="8" r="6.5" stroke="currentColor"/><path d="M8 4.92996L9.44723 8L8 11.07L6.55277 8L8 4.92996Z" stroke="currentColor" stroke-linejoin="round"/><path fill-rule="evenodd" clip-rule="evenodd" d="M7.5 2V2.5C7.5 2.77614 7.72386 3 8 3C8.27614 3 8.5 2.77614 8.5 2.5V2C8.5 1.72386 8.27614 1.5 8 1.5C7.72386 1.5 7.5 1.72386 7.5 2ZM7.5 13.5V14C7.5 14.2761 7.72386 14.5 8 14.5C8.27614 14.5 8.5 14.2761 8.5 14V13.5C8.5 13.2239 8.27614 13 8 13C7.72386 13 7.5 13.2239 7.5 13.5ZM13.5 7.5H14C14.2761 7.5 14.5 7.72386 14.5 8C14.5 8.27614 14.2761 8.5 14 8.5H13.5C13.2239 8.5 13 8.27614 13 8C13 7.72386 13.2239 7.5 13.5 7.5ZM2.5 7.5H2C1.72386 7.5 1.5 7.72386 1.5 8C1.5 8.27614 1.72386 8.5 2 8.5H2.5C2.77614 8.5 3 8.27614 3 8C3 7.72386 2.77614 7.5 2.5 7.5Z" fill="currentColor"/><path d="M13.5 2.5L2.5 13.5" stroke="currentColor" stroke-linecap="round"/></svg>

<svg xmlns="http://www.w3.org/2000/svg" fill="none" viewBox="0 0 16 16" width="1em" height="1em"><circle cx="8" cy="8" r="6.5" stroke="currentColor"/><path stroke="currentColor" stroke-linejoin="round" d="M8 4.93 9.447 8 8 11.07 6.553 8 8 4.93Z"/><path fill="currentColor" fill-rule="evenodd" d="M7.5 2v.5a.5.5 0 0 0 1 0V2a.5.5 0 0 0-1 0Zm0 11.5v.5a.5.5 0 0 0 1 0v-.5a.5.5 0 0 0-1 0Zm6-6h.5a.5.5 0 0 1 0 1h-.5a.5.5 0 0 1 0-1Zm-11 0H2a.5.5 0 0 0 0 1h.5a.5.5 0 0 0 0-1Z" clip-rule="evenodd"/><path stroke="currentColor" stroke-linecap="round" d="m13.5 2.5-11 11"/></svg>
